X: 21
T:Reel,A. BF13.020
M:4/4
L:1/8
Q:200
S:J.Lishman()MS,c1825,Lakes,Browne Coll.
R:Reel
O:England
A:Lakes
N:Bar 2, (B2dB)missing from MS..CGP
Z:vmp.Chris Partington
K:Bb
F|B2dBc2ec|B2dB AcAF|B2dBc2ec|dcBAB2B:|!
|:z|f2dBG2E2|g2ecA2F2|f2dfb2ge|dcBAB2B:|]
